X: 39310
T: Taladh Chriosd
R: waltz
M: 3/4
K: Dmixolydian
D4E2|F4G2|A4G2|D6|F4D2|E4A2|G4E2|C6|
D4E2|F4G2|A4G2|D6|D4A,2|C4D2|E4D2|D6|

